src/images/facebook.svg

<svg width="49" height="48" viewBox="0 0 49 48" fill="none" xmlns="http://www.w3.org/2000/svg">
<path fill-rule="evenodd" clip-rule="evenodd" d="M24.5 14C18.9771 14 14.5 18.5045 14.5 24.0611C14.5 29.0829 18.1569 33.2452 22.9375 34V26.9694H20.3984V24.0611H22.9375V21.8445C22.9375 19.323 24.4304 17.9301 26.7146 17.9301C27.8087 17.9301 28.9531 18.1266 28.9531 18.1266V20.6026H27.6921C26.4499 20.6026 26.0625 21.3782 26.0625 22.1738V24.0611H28.8359L28.3926 26.9694H26.0625V34C30.8431 33.2452 34.5 29.0829 34.5 24.0611C34.5 18.5045 30.0229 14 24.5 14Z" fill="white"/>
</svg>

<svg width="49" height="48" fill="none" xmlns="http://www.w3.org/2000/svg"><path fill-rule="evenodd" clip-rule="evenodd" d="M24.5 14c-5.523 0-10 4.505-10 10.061 0 5.022 3.657 9.184 8.438 9.939v-7.03h-2.54v-2.91h2.54v-2.216c0-2.522 1.492-3.915 3.777-3.915 1.094 0 2.238.197 2.238.197v2.476h-1.26c-1.243 0-1.63.775-1.63 1.57v1.888h2.773l-.443 2.908h-2.33V34c4.78-.755 8.437-4.917 8.437-9.939C34.5 18.505 30.023 14 24.5 14z" fill="#fff"/></svg>
